public/avatar/hat/156.svg

<svg xmlns:xlink="http://www.w3.org/1999/xlink" height="92.9" width="100.7" xmlns="http://www.w3.org/2000/svg"><use height="40.6" transform="translate(21.3 31.75)" width="34.05" xlink:href="#a"/><defs><g id="a" fill-rule="evenodd"><path d="M-2.95-4.1q1.4-.25 4.9-.05h.3l.8.2.3.25q.2.5-.3 3.5L5.6.45q.5-.7 1.3-.85.8-.2 1.95.9 1.1 1.05 1.65 2.4.5 1.2.45 2.2 3.6 3.15 5.75 11v.1q0 .35-.35.5l-1.75.45q-.15 1.2-1.25 2.4-2.4 2.6-6.25 2.75-.45 0-.55-.4l-.9-3.45q-.05-.25.25-.45 3.7-2.65 3.85-3.6v-.15l-1-3-1.1-2.4q-3.4-.65-5.85.7l.75 7.25v.05l-.1.35-.4.15-4.25.15-.5-.5v-.05l.2-7.05q-2.65-1.7-6.35-1.1-1.45 2.9-1.45 5.65v.05q.65 1.4 4.4 3.3.35.15.35.45l-.05.15-1.6 3.95q-.2.35-.55.25-5.95-.8-7.3-5.85-1.6-.1-2.1-.5l-.2-.4v-.05q.35-2.7 2.5-5.95 1.3-1.95 2.8-3.35-.75-1.55.1-3.6.55-1.35 1.65-2.4 1.2-1.1 2-.9 1.1.25 1.65 1.3 1.2-.65 2.85-.95l-.1-1.05-.05-2.45.05-.15.05-.1.9-.3m.4 4.9H1.8l.05-.4L2-.3l.1-.95v-.1l.05-.15v-.05l.1-1.25-.05-.3-.45-.1L1-3.3v.05l-3.95.15-.05.3.05.85.05.3v.6h.05l.05.85.15.7.1.3m4.7 1h-5.2l-.45-.3-.2-.8q-1.6.4-2.7 1.15l-.15.2q-1.65 1.7-1.65 2.4l.05.15q.2.5 2.75.65l1.2.1q.7.1 2.8 1.1l.7.3.7-.3.35-.15 1.85-.8.55-.15 1.2-.1h.15q2.4-.15 2.6-.65l.05-.15q0-.7-1.6-2.35l-.05-.05-.15-.35v-.05l.3-.55-2.3-.6-.1.6-.05.3q-.1.4-.55.4h-.1m-1.9 8.8-.1.1-.4.4q-.05.15-.4.15L-1 11.1l-.3-.3-.15-.1-.15 5.8H.2l1.2-.1-.7-6.15-.45.35m-10.6-2.3-1.15-1-.2.2-.9 1-.6.75-.75 1q-2.05 2.9-2.4 5.3l.5.1.35.05 1.05.15h.2q1 5 6.25 5.7l1.25-3.05-1-.55-2.15-1.4-1.25-1.35-.15-.35q-.25-3.1 1.4-6.3l-.45-.25m18.95.15-.05.05 2.2 5.8q.2.6-1.5 2.25v-.05L6.8 18.55l.7 2.65q3.05-.05 4.9-1.95 1.5-1.6 1.3-3 .1 1.25-1 2.65-.4-3.15-1.95-4.8-.2-1.05-1.4-3.95l-.75-1.7 1.5-1.2.7-1.25q2.75 2.55 4.8 9.95l-1.9.3.8-.05q-1.35-4.65-4.4-8.95 3.05 4.3 4.4 8.95l-.8.05 1.9-.3Q13.55 8.55 10.8 6l-.7 1.25-1.5 1.2" fill="#351e02" transform="translate(17.35 18)"/><path d="M.35 6.3 0 6.45l-.7.3-.7-.3q-2.1-1-2.8-1.1l-1.2-.1q-2.55-.15-2.75-.65l-.05-.15q0-.7 1.65-2.4l.15-.2Q-5.3 1.1-3.7.7l.2.8.45.3h5.2Q4.1 2.9 4.1 5.05v.2h-.15l-1.2.1-.55.15-.35-.85L.1 2.45Q.6 4.4.35 6.3m2.5-5.2.1-.6 2.3.6-.3.55v.05l.15.35.05.05q-1.15-.7-2.3-1m-6.9 0-.15.15q-.95-.2-2.75 1.45-.6.6-.9 1.9 1.2.6 4-2.7l-.2-.8M.2 16.5h-1.8l.15-5.8.15.1.3.3.35.15q.35 0 .4-.15l.4-.4.1-.1-.05 5.9m-11.9-9 .2-.2 1.15 1-.95 2.05-.95 2.8q-.45 1.75.5 2.75 1.9 1.95 3.45 2.9l-1.75 2.2 2.05.55q-5.25-.7-6.25-5.7h-.2l.5-1.3q-1.15 1.15-2.2.1l-.2.9q.35-2.4 2.4-5.3l-1.5 3q.75-.25 2.35-2.8l1.95-2.35V8l-.55-.5m.2 10.4q-1-1.3-1.35-3.3l-.9 1.85q.4 2.45 2.5 3.6.5-1.15-.25-2.15m20.75-1.35q1.7-1.65 1.5-2.25l-2.2-5.8.05-.05.75 1.7q1.2 2.9 1.4 3.95 1.55 1.65 1.95 4.8 1.1-1.4 1-2.65.2 1.4-1.3 3-1.85 1.9-4.9 1.95l1.15-.1.6-4.55" fill="#f8c606" transform="translate(17.35 18)"/><path d="M2.15 1.8h.1q.45 0 .55-.4l.05-.3q1.15.3 2.3 1 1.6 1.65 1.6 2.35l-.05.15q-.2.5-2.6.65v-.2q0-2.15-1.95-3.25m.05 3.7-1.85.8Q.6 4.4.1 2.45l1.75 2.2.35.85M.25 10.6l.45-.35.7 6.15-1.2.1.05-5.9m-10.6-2.3.45.25q-1.65 3.2-1.4 6.3l.15.35 1.25 1.35 2.15 1.4 1 .55L-8 21.55l-2.05-.55 1.75-2.2q-1.55-.95-3.45-2.9-.95-1-.5-2.75l.95-2.8.95-2.05m-4.1 7.55-1.05-.15-.35-.05-.5-.1.2-.9q1.05 1.05 2.2-.1l-.5 1.3-1.05-.15 1.05.15M7.5 21.2l-.7-2.65 2.45-2.05v.05l-.6 4.55-1.15.1" fill="#f87006" transform="translate(17.35 18)"/><path d="m-4.05 1.1.2.8q-2.8 3.3-4 2.7.3-1.3.9-1.9 1.8-1.65 2.75-1.45l.15-.15m-9.9 9.15.75-1 .6-.75.9-1 .55.5v.1l-1.95 2.35q-1.6 2.55-2.35 2.8l1.5-3m2.45 7.65q.75 1 .25 2.15-2.1-1.15-2.5-3.6l.9-1.85q.35 2 1.35 3.3" fill="#fff" transform="translate(17.35 18)"/><path d="M3.05-16.05q-.45-1.15-4.05-1-3.65.15-3.7 1.4.9 7.2 1.75 11.55l-.9.3-.05.1-.05.15L-5.8-15.8v-.1q.15-1.8 4.45-2.05 5.05-.25 5.5 1.7.3 2.05-1.1 12.3l-.8-.2h-.3q1.4-9.9 1.1-11.9" fill="#440202" transform="translate(17.35 18)"/><path d="M3.05-16.05q-.2-.4-.9-.65L.75-7l-.3-7.35-1.1 8.4-.55-3.75q-1.05 3.25-1.65 4.5l-.2.5.1.6Q-3.8-8.45-4.7-15.65q.05-1.25 3.7-1.4 3.6-.15 4.05 1M-.5-13.1q.35-1.45 1.6-3.5-5.4-.3-5.3 1.65.35 5.35 1.35 8.35L-3-15.35l1.4 3.5v-3.75l1.1 2.5" fill="#d80000" transform="translate(17.35 18)"/><path d="m-2.95-4.1-.1-.6.2-.5q.6-1.25 1.65-4.5l.55 3.75 1.1-8.4L.75-7l1.4-9.7q.7.25.9.65.3 2-1.1 11.9-3.5-.2-4.9.05" fill="#960000" transform="translate(17.35 18)"/><path d="M1-3.25v-.05l.75.1.45.1.05.3-.1 1.25v.05l-.05.15v.1L2-.3l-.15.7-.05.4h-4.35l-.1-.4 2.5-.8.95-.4.2-1.85v-.6m-3.85 2.2h-.05v-.6l-.05-.3 2.1.2-2 .7M9.5 3.05l.1.2.25 1.05-.05.95-.4 1.1-.4.5-.4.45-.75.55-.4-.05-.7-.15-3.55.25-.4.1-3.45 2-.8-.65q-.6-.5-1.25-.8l-1.1-.45-5.2-.25-.2-.1-.4-.25-.35-.25-.7-.7.85.4.9.15h1.55l1.55-.05Q-2.9 7-.8 8.8-.2 8.35.9 8q1.65-.6 4.45-.95l.7-.1 2-.45.55-.95.4-1.2.05-1.45-.1-.85.55 1" fill="#cf7838" transform="translate(17.35 18)"/><path d="m-2.55.8-.1-.3-.15-.7-.05-.85 2-.7-2.1-.2L-3-2.8l.05-.3L1-3.25v.6L.8-.8l-.95.4-2.5.8.1.4M9.5 3.05Q8.3.2 6.95.5 6.6.55 6.4.75q-.2.15-.25.45v.3l.05.2q1.9 1.85 1.65 2.95-.15.55-.8.9l-3.15.7-.9.1-.7.3-2.2.9-.85.25q-2.55-1.4-3.5-1.55l-4.2-.8-.5-.3.8.45-1 .45-.45-.45-.45-.8q-.35-.75-.2-1.6.25-1.6 2-2.6.7.2.9.7l.05.3-1.3 1.3 1.3-1.3-.05-.3q-.2-.5-.9-.7-1.75 1-2 2.6-.15.85.2 1.6l.45.8.45.45 1-.45-.8-.45.5.3 4.2.8q.95.15 3.5 1.55l.85-.25 2.2-.9.7-.3.9-.1 3.15-.7q.65-.35.8-.9.25-1.1-1.65-2.95l-.05-.2v-.3Q6.2.9 6.4.75q.2-.2.55-.25Q8.3.2 9.5 3.05l-.55-1 .1.85L9 4.35l-.4 1.2-.55.95-2 .45-.7.1Q2.55 7.4.9 8q-1.1.35-1.7.8-2.1-1.8-5-1.75l-1.55.05H-8.9l-.9-.15-.85-.4.7.7.35.25.4.25.2.1 5.2.25 1.1.45q.65.3 1.25.8l.8.65L2.8 8l.4-.1 4.25-.1-4.25.1 3.55-.25.7.15.4.05.3-.2 1.3-1.25.4-1.1v-1 1l-.4 1.1-1.3 1.25-.3.2.75-.55.4-.45.4-.5.4-1.1.05-.95-.25-1.05-.1-.2M-8.6 2.9q-1.3 1.45-.35 2.25-.85-.8.35-2.25-1.2 1.45-.35 2.25-.95-.8.35-2.25m.35-2.3-.2-.05q-1.45-.3-2.6 2.6-.55 1.4-.15 2.55l.5.85.75.75.35.2-.35-.2-.75-.75-.5-.85q-.4-1.15.15-2.55Q-9.9.25-8.45.55l.2.05" fill="#f8f9a8" transform="translate(17.35 18)"/><path d="m-.5-13.1-1.1-2.5v3.75l-1.4-3.5.15 8.75q-1-3-1.35-8.35-.1-1.95 5.3-1.65-1.25 2.05-1.6 3.5" fill="#ff6e6e" transform="translate(17.35 18)"/></g></defs></svg>

<?xml version="1.0" encoding="UTF-8" standalone="no"?>
<svg xmlns:xlink="http://www.w3.org/1999/xlink" height="92.9px" width="100.7px" xmlns="http://www.w3.org/2000/svg">
  <g transform="matrix(1.0, 0.0, 0.0, 1.0, 38.65, 49.75)">
    <use height="40.6" transform="matrix(1.0, 0.0, 0.0, 1.0, -17.35, -18.0)" width="34.05" xlink:href="#shape0"/>
  </g>
  <defs>
    <g id="shape0" transform="matrix(1.0, 0.0, 0.0, 1.0, 17.35, 18.0)">
      <path d="M-2.95 -4.1 Q-1.55 -4.35 1.95 -4.15 L2.25 -4.15 3.05 -3.95 3.35 -3.7 Q3.55 -3.2 3.05 -0.2 L5.6 0.45 Q6.1 -0.25 6.9 -0.4 7.7 -0.6 8.85 0.5 9.95 1.55 10.5 2.9 11.0 4.1 10.95 5.1 14.55 8.25 16.7 16.1 L16.7 16.2 Q16.7 16.55 16.35 16.7 L14.6 17.15 Q14.45 18.35 13.35 19.55 10.95 22.15 7.1 22.3 6.65 22.3 6.55 21.9 L5.65 18.45 Q5.6 18.2 5.9 18.0 9.6 15.35 9.75 14.4 L9.75 14.25 8.75 11.25 7.65 8.85 Q4.25 8.2 1.8 9.55 L2.55 16.8 2.55 16.85 2.45 17.2 2.05 17.35 -2.2 17.5 -2.7 17.0 -2.7 16.95 -2.5 9.9 Q-5.15 8.2 -8.85 8.8 -10.3 11.7 -10.3 14.45 L-10.3 14.5 Q-9.65 15.9 -5.9 17.8 -5.55 17.95 -5.55 18.25 L-5.6 18.4 -7.2 22.35 Q-7.4 22.7 -7.75 22.6 -13.7 21.8 -15.05 16.75 -16.65 16.65 -17.15 16.25 L-17.35 15.85 -17.35 15.8 Q-17.0 13.1 -14.85 9.85 -13.55 7.9 -12.05 6.5 -12.8 4.95 -11.95 2.9 -11.4 1.55 -10.3 0.5 -9.1 -0.6 -8.3 -0.4 -7.2 -0.15 -6.65 0.9 -5.45 0.25 -3.8 -0.05 L-3.9 -1.1 -3.95 -3.55 -3.9 -3.7 -3.85 -3.8 -2.95 -4.1 M-2.55 0.8 L1.8 0.8 1.85 0.4 2.0 -0.3 2.1 -1.25 2.1 -1.35 2.15 -1.5 2.15 -1.55 2.25 -2.8 2.2 -3.1 1.75 -3.2 1.0 -3.3 1.0 -3.25 -2.95 -3.1 -3.0 -2.8 -2.95 -1.95 -2.9 -1.65 -2.9 -1.05 -2.85 -1.05 -2.8 -0.2 -2.65 0.5 -2.55 0.8 M2.15 1.8 L-3.05 1.8 -3.5 1.5 -3.7 0.7 Q-5.3 1.1 -6.4 1.85 L-6.55 2.05 Q-8.2 3.75 -8.2 4.45 L-8.15 4.6 Q-7.95 5.1 -5.4 5.25 L-4.2 5.35 Q-3.5 5.45 -1.4 6.45 L-0.7 6.75 0.0 6.45 0.35 6.3 2.2 5.5 2.75 5.35 3.95 5.25 4.1 5.25 Q6.5 5.1 6.7 4.6 L6.75 4.45 Q6.75 3.75 5.15 2.1 L5.1 2.05 4.95 1.7 4.95 1.65 5.25 1.1 2.95 0.5 2.85 1.1 2.8 1.4 Q2.7 1.8 2.25 1.8 L2.15 1.8 M0.25 10.6 L0.15 10.7 -0.25 11.1 Q-0.3 11.25 -0.65 11.25 L-1.0 11.1 -1.3 10.8 -1.45 10.7 -1.6 16.5 0.2 16.5 1.4 16.4 0.7 10.25 0.25 10.6 M-10.35 8.3 L-11.5 7.3 -11.7 7.5 -12.6 8.5 -13.2 9.25 -13.95 10.25 Q-16.0 13.15 -16.35 15.55 L-15.85 15.65 -15.5 15.7 -14.45 15.85 -14.25 15.85 Q-13.25 20.85 -8.0 21.55 L-6.75 18.5 -7.75 17.95 -9.9 16.55 -11.15 15.2 -11.3 14.85 Q-11.55 11.75 -9.9 8.55 L-10.35 8.3 M8.6 8.45 L8.55 8.5 10.75 14.3 Q10.95 14.9 9.25 16.55 L9.25 16.5 6.8 18.55 7.5 21.2 Q10.55 21.15 12.4 19.25 13.9 17.65 13.7 16.25 13.8 17.5 12.7 18.9 12.3 15.75 10.75 14.1 10.55 13.05 9.35 10.15 L8.6 8.45 10.1 7.25 10.8 6.0 Q13.55 8.55 15.6 15.95 L13.7 16.25 14.5 16.2 Q13.15 11.55 10.1 7.25 13.15 11.55 14.5 16.2 L13.7 16.25 15.6 15.95 Q13.55 8.55 10.8 6.0 L10.1 7.25 8.6 8.45" fill="#351e02" fill-rule="evenodd" stroke="none"/>
      <path d="M0.35 6.3 L0.0 6.45 -0.7 6.75 -1.4 6.45 Q-3.5 5.45 -4.2 5.35 L-5.4 5.25 Q-7.95 5.1 -8.15 4.6 L-8.2 4.45 Q-8.2 3.75 -6.55 2.05 L-6.4 1.85 Q-5.3 1.1 -3.7 0.7 L-3.5 1.5 -3.05 1.8 2.15 1.8 Q4.1 2.9 4.1 5.05 L4.1 5.25 3.95 5.25 2.75 5.35 2.2 5.5 1.85 4.65 0.1 2.45 Q0.6 4.4 0.35 6.3 M2.85 1.1 L2.95 0.5 5.25 1.1 4.95 1.65 4.95 1.7 5.1 2.05 5.15 2.1 Q4.0 1.4 2.85 1.1 M-4.05 1.1 L-4.2 1.25 Q-5.15 1.05 -6.95 2.7 -7.55 3.3 -7.85 4.6 -6.65 5.2 -3.85 1.9 L-4.05 1.1 M0.2 16.5 L-1.6 16.5 -1.45 10.7 -1.3 10.8 -1.0 11.1 -0.65 11.25 Q-0.3 11.25 -0.25 11.1 L0.15 10.7 0.25 10.6 0.2 16.5 M-11.7 7.5 L-11.5 7.3 -10.35 8.3 -11.3 10.35 -12.25 13.15 Q-12.7 14.9 -11.75 15.9 -9.85 17.85 -8.3 18.8 L-10.05 21.0 -8.0 21.55 Q-13.25 20.85 -14.25 15.85 L-14.45 15.85 -13.95 14.55 Q-15.1 15.7 -16.15 14.65 L-16.35 15.55 Q-16.0 13.15 -13.95 10.25 L-15.45 13.25 Q-14.7 13.0 -13.1 10.45 L-11.15 8.1 -11.15 8.0 -11.7 7.5 M-11.5 17.9 Q-12.5 16.6 -12.85 14.6 L-13.75 16.45 Q-13.35 18.9 -11.25 20.05 -10.75 18.9 -11.5 17.9 M9.25 16.55 Q10.95 14.9 10.75 14.3 L8.55 8.5 8.6 8.45 9.35 10.15 Q10.55 13.05 10.75 14.1 12.3 15.75 12.7 18.9 13.8 17.5 13.7 16.25 13.9 17.65 12.4 19.25 10.55 21.15 7.5 21.2 L8.65 21.1 9.25 16.55" fill="#f8c606" fill-rule="evenodd" stroke="none"/>
      <path d="M2.15 1.8 L2.25 1.8 Q2.7 1.8 2.8 1.4 L2.85 1.1 Q4.0 1.4 5.15 2.1 6.75 3.75 6.75 4.45 L6.7 4.6 Q6.5 5.1 4.1 5.25 L4.1 5.05 Q4.1 2.9 2.15 1.8 M2.2 5.5 L0.35 6.3 Q0.6 4.4 0.1 2.45 L1.85 4.65 2.2 5.5 M0.25 10.6 L0.7 10.25 1.4 16.4 0.2 16.5 0.25 10.6 M-10.35 8.3 L-9.9 8.55 Q-11.55 11.75 -11.3 14.85 L-11.15 15.2 -9.9 16.55 -7.75 17.95 -6.75 18.5 -8.0 21.55 -10.05 21.0 -8.3 18.8 Q-9.85 17.85 -11.75 15.9 -12.7 14.9 -12.25 13.15 L-11.3 10.35 -10.35 8.3 M-14.45 15.85 L-15.5 15.7 -15.85 15.65 -16.35 15.55 -16.15 14.65 Q-15.1 15.7 -13.95 14.55 L-14.45 15.85 -15.5 15.7 -14.45 15.85 M7.5 21.2 L6.8 18.55 9.25 16.5 9.25 16.55 8.65 21.1 7.5 21.2" fill="#f87006" fill-rule="evenodd" stroke="none"/>
      <path d="M-4.05 1.1 L-3.85 1.9 Q-6.65 5.2 -7.85 4.6 -7.55 3.3 -6.95 2.7 -5.15 1.05 -4.2 1.25 L-4.05 1.1 M-13.95 10.25 L-13.2 9.25 -12.6 8.5 -11.7 7.5 -11.15 8.0 -11.15 8.1 -13.1 10.45 Q-14.7 13.0 -15.45 13.25 L-13.95 10.25 M-11.5 17.9 Q-10.75 18.9 -11.25 20.05 -13.35 18.9 -13.75 16.45 L-12.85 14.6 Q-12.5 16.6 -11.5 17.9" fill="#ffffff" fill-rule="evenodd" stroke="none"/>
      <path d="M3.05 -16.05 Q2.6 -17.2 -1.0 -17.05 -4.65 -16.9 -4.7 -15.65 -3.8 -8.45 -2.95 -4.1 L-3.85 -3.8 -3.9 -3.7 -3.95 -3.55 -5.8 -15.8 -5.8 -15.9 Q-5.65 -17.7 -1.35 -17.95 3.7 -18.2 4.15 -16.25 4.45 -14.2 3.05 -3.95 L2.25 -4.15 1.95 -4.15 Q3.35 -14.05 3.05 -16.05" fill="#440202" fill-rule="evenodd" stroke="none"/>
      <path d="M3.05 -16.05 Q2.85 -16.45 2.15 -16.7 L0.75 -7.0 0.45 -14.35 -0.65 -5.95 -1.2 -9.7 Q-2.25 -6.45 -2.85 -5.2 L-3.05 -4.7 -2.95 -4.1 Q-3.8 -8.45 -4.7 -15.65 -4.65 -16.9 -1.0 -17.05 2.6 -17.2 3.05 -16.05 M-0.5 -13.1 Q-0.15 -14.55 1.1 -16.6 -4.3 -16.9 -4.2 -14.95 -3.85 -9.6 -2.85 -6.6 L-3.0 -15.35 -1.6 -11.85 -1.6 -15.6 -0.5 -13.1" fill="#d80000" fill-rule="evenodd" stroke="none"/>
      <path d="M-2.95 -4.1 L-3.05 -4.7 -2.85 -5.2 Q-2.25 -6.45 -1.2 -9.7 L-0.65 -5.95 0.45 -14.35 0.75 -7.0 2.15 -16.7 Q2.85 -16.45 3.05 -16.05 3.35 -14.05 1.95 -4.15 -1.55 -4.35 -2.95 -4.1" fill="#960000" fill-rule="evenodd" stroke="none"/>
      <path d="M1.0 -3.25 L1.0 -3.3 1.75 -3.2 2.2 -3.1 2.25 -2.8 2.15 -1.55 2.15 -1.5 2.1 -1.35 2.1 -1.25 2.0 -0.3 1.85 0.4 1.8 0.8 -2.55 0.8 -2.65 0.4 -0.15 -0.4 0.8 -0.8 1.0 -2.65 1.0 -3.25 M-2.85 -1.05 L-2.9 -1.05 -2.9 -1.65 -2.95 -1.95 -0.85 -1.75 -2.85 -1.05 M9.5 3.05 L9.6 3.25 9.85 4.3 9.8 5.25 9.4 6.35 9.0 6.85 8.6 7.3 7.85 7.85 7.45 7.8 6.75 7.65 3.2 7.9 2.8 8.0 -0.65 10.0 -1.45 9.35 Q-2.05 8.85 -2.7 8.55 L-3.8 8.1 -9.0 7.85 -9.2 7.75 -9.6 7.5 -9.95 7.25 -10.65 6.55 -9.8 6.95 -8.9 7.1 -7.35 7.1 -5.8 7.05 Q-2.9 7.0 -0.8 8.8 -0.2 8.35 0.9 8.0 2.55 7.4 5.35 7.05 L6.05 6.95 8.05 6.5 8.6 5.55 9.0 4.35 9.05 2.9 8.95 2.05 9.5 3.05" fill="#cf7838" fill-rule="evenodd" stroke="none"/>
      <path d="M-2.55 0.8 L-2.65 0.5 -2.8 -0.2 -2.85 -1.05 -0.85 -1.75 -2.95 -1.95 -3.0 -2.8 -2.95 -3.1 1.0 -3.25 1.0 -2.65 0.8 -0.8 -0.15 -0.4 -2.65 0.4 -2.55 0.8 M9.5 3.05 Q8.3 0.2 6.95 0.5 6.6 0.55 6.4 0.75 6.2 0.9 6.15 1.2 L6.15 1.5 6.2 1.7 Q8.1 3.55 7.85 4.65 7.7 5.2 7.05 5.55 L3.9 6.25 3.0 6.35 2.3 6.65 0.1 7.55 -0.75 7.8 Q-3.3 6.4 -4.25 6.25 L-8.45 5.45 -8.95 5.15 -8.15 5.6 -9.15 6.05 -9.6 5.6 -10.05 4.8 Q-10.4 4.05 -10.25 3.2 -10.0 1.6 -8.25 0.6 -7.55 0.8 -7.35 1.3 L-7.3 1.6 -8.6 2.9 -7.3 1.6 -7.35 1.3 Q-7.55 0.8 -8.25 0.6 -10.0 1.6 -10.25 3.2 -10.4 4.05 -10.05 4.8 L-9.6 5.6 -9.15 6.05 -8.15 5.6 -8.95 5.15 -8.45 5.45 -4.25 6.25 Q-3.3 6.4 -0.75 7.8 L0.1 7.55 2.3 6.65 3.0 6.35 3.9 6.25 7.05 5.55 Q7.7 5.2 7.85 4.65 8.1 3.55 6.2 1.7 L6.15 1.5 6.15 1.2 Q6.2 0.9 6.4 0.75 6.6 0.55 6.95 0.5 8.3 0.2 9.5 3.05 L8.95 2.05 9.05 2.9 9.0 4.35 8.6 5.55 8.05 6.5 6.05 6.95 5.35 7.05 Q2.55 7.4 0.9 8.0 -0.2 8.35 -0.8 8.8 -2.9 7.0 -5.8 7.05 L-7.35 7.1 -8.9 7.1 -9.8 6.95 -10.65 6.55 -9.95 7.25 -9.6 7.5 -9.2 7.75 -9.0 7.85 -3.8 8.1 -2.7 8.55 Q-2.05 8.85 -1.45 9.35 L-0.65 10.0 2.8 8.0 3.2 7.9 7.45 7.8 3.2 7.9 6.75 7.65 7.45 7.8 7.85 7.85 8.15 7.65 9.45 6.4 9.85 5.3 9.85 4.3 9.85 5.3 9.45 6.4 8.15 7.65 7.85 7.85 8.6 7.3 9.0 6.85 9.4 6.35 9.8 5.25 9.85 4.3 9.6 3.25 9.5 3.05 M-8.6 2.9 Q-9.9 4.35 -8.95 5.15 -9.8 4.35 -8.6 2.9 -9.8 4.35 -8.95 5.15 -9.9 4.35 -8.6 2.9 M-8.25 0.6 L-8.45 0.55 Q-9.9 0.25 -11.05 3.15 -11.6 4.55 -11.2 5.7 L-10.7 6.55 -9.95 7.3 -9.6 7.5 -9.95 7.3 -10.7 6.55 -11.2 5.7 Q-11.6 4.55 -11.05 3.15 -9.9 0.25 -8.45 0.55 L-8.25 0.6" fill="#f8f9a8" fill-rule="evenodd" stroke="none"/>
      <path d="M-0.5 -13.1 L-1.6 -15.6 -1.6 -11.85 -3.0 -15.35 -2.85 -6.6 Q-3.85 -9.6 -4.2 -14.95 -4.3 -16.9 1.1 -16.6 -0.15 -14.55 -0.5 -13.1" fill="#ff6e6e" fill-rule="evenodd" stroke="none"/>
    </g>
  </defs>
</svg>
